usr/share/icons/biglinux-icons-material/32/actions/view-sort-ascending-name.svg

<svg xmlns="http://www.w3.org/2000/svg" viewBox="0 0 32 32">
  <defs
     id="defs3051">
    <style
       type="text/css"
       id="current-color-scheme">
      .ColorScheme-Text {
        color:#dedede;
      }
      </style>
  </defs>
  <path
     style="fill:currentColor;fill-opacity:1;stroke:none" 
     d="M 11.080078 3.9980469 C 10.046938 3.9980469 9.1170449 4.1891988 8.2890625 4.5722656 L 8.6171875 5.4589844 C 8.9727054 5.2893975 9.3769931 5.1588477 9.8300781 5.0664062 C 10.283163 4.9693094 10.706616 4.9199219 11.101562 4.9199219 C 11.686296 4.9199219 12.112885 5.059278 12.380859 5.3359375 C 12.653512 5.6119318 12.789062 6.0311205 12.789062 6.59375 L 12.789062 7.3496094 L 11.554688 7.3515625 C 10.31238 7.3515625 9.405969 7.5464106 8.8359375 7.9394531 C 8.2705839 8.3271753 7.9882812 8.939469 7.9882812 9.7734375 C 7.9882813 10.471071 8.2018322 11.01516 8.6308594 11.408203 C 9.0645644 11.801246 9.6366205 11.998047 10.347656 11.998047 C 11.4102 11.998047 12.273295 11.594518 12.935547 10.785156 L 13.066406 11.845703 L 13.988281 11.845703 L 13.988281 6.7695312 C 13.988281 5.7899175 13.735062 5.083959 13.228516 4.6523438 C 12.726648 4.2160731 12.010305 3.9980469 11.080078 3.9980469 z M 11.863281 8.1484375 L 12.791016 8.1484375 L 12.791016 9.84375 C 12.211628 10.69235 11.422887 11.117188 10.423828 11.117188 L 10.421875 11.117188 C 10.057001 11.117187 9.753683 11.000344 9.5097656 10.767578 C 9.2658483 10.535477 9.1425781 10.206257 9.1425781 9.7792969 C 9.1425781 9.5418752 9.164879 9.3419168 9.2089844 9.1816406 C 9.25309 9.016709 9.3342252 8.8661383 9.4511719 8.7304688 C 9.5681185 8.590144 9.7291042 8.4821071 9.9335938 8.4042969 C 10.138083 8.3218313 10.398086 8.2587371 10.714844 8.2148438 C 11.031602 8.1709504 11.414875 8.1484375 11.863281 8.1484375 z M 8.1757812 14 L 8.2246094 14.900391 L 12.482422 14.900391 L 8 21.191406 L 8 22 L 14 22 L 13.966797 21.0625 L 9.5253906 21.0625 L 13.925781 14.861328 L 13.925781 14 L 8.1757812 14 z M 21 14 L 16 19 L 16.707031 19.707031 L 20.5 15.914062 L 20.5 28.003906 L 21.5 28.003906 L 21.5 15.914062 L 25.292969 19.707031 L 26 19 L 22 15 L 21 14 z "
     id="path8" 
     class="ColorScheme-Text"
     />
</svg>

<svg xmlns="http://www.w3.org/2000/svg" viewBox="0 0 32 32"><path d="M11.08 3.998c-1.033 0-1.963.191-2.79.574l.327.887c.356-.17.76-.3 1.213-.393a6.087 6.087 0 0 1 1.272-.146c.584 0 1.01.14 1.279.416.273.276.408.695.408 1.258v.756l-1.234.002c-1.243 0-2.149.194-2.72.587-.564.388-.847 1-.847 1.834 0 .698.214 1.242.643 1.635.434.393 1.006.59 1.717.59 1.062 0 1.925-.403 2.588-1.213l.13 1.06h.922V6.77c0-.98-.253-1.686-.76-2.118-.501-.436-1.218-.654-2.148-.654zm.783 4.15h.928v1.696c-.58.848-1.368 1.273-2.367 1.273h-.002c-.365 0-.668-.117-.912-.35-.244-.232-.367-.56-.367-.988 0-.237.022-.437.066-.597a1.135 1.135 0 0 1 .725-.778c.204-.082.464-.145.78-.19.318-.043.7-.066 1.15-.066zM8.176 14l.049.9h4.257L8 21.191V22h6l-.033-.938H9.525l4.4-6.2V14h-5.75zM21 14l-5 5 .707.707 3.793-3.793v12.09h1v-12.09l3.793 3.793L26 19l-4-4-1-1z" style="fill:currentColor;fill-opacity:1;stroke:none;color:#dedede"/></svg>
